X:61
T:Grano's March. TJD.61
M:C
L:1/8
Q:1/4=120
S:T.J.Dixon MS2, Lincolnshire, early 19thC
R:march
A:Lincolnshire, Holton le Moor
Z:vmp.R.Greig2010
K:D
f4e4|d>dd>dd2A2|a4g4|f>ff>ff2d2|f>f (3fga e>e (3efg|!
d>d (3def e2A2|(3ded (3efe (3fgf (3efe|(3aba (3gag (3fgf (3efe|d>dd>dd4:|!
|:(3fgf (3fgf (3efe (3efe|(3gag (3gag f4|f>f (3fga e>e (3efg|d>d (3def e2A2|!
(3fgf (3fgf (3efe (3efe|(3gag (3gag f4|a8-|a8|(3aba (3gag (3fgf (3efe|d>dd>dd4:|]

